X:109
T:score195
L:1/8
Q:1/4=96
M:2/4
I:linebreak $
K:F
 C2 =B,C | C2 =B,C | F2 EF | c4 | B2 AG | A2 G2 |$ F2 ED | E2 D2 | C2 =B,C | C2 =B,C | F2 EF | %11
 d2 c2 |$ B2 ^FG | A2 G2 | F4- | F z z2 |] %16
